!!!!SEGMENT: pl-wtm--r-1461--007_stefani-jozef--wszechstronne-cwiczenia-glosowe-kwarty-proste.krn
!!!cenid: 18xx:2184
!!!COM: Stefani, Józef
!!!COM-rismid: pe30024097
!!!CDT: 1800/04/16-1876/03/19
!!!CNT: Polish
!!!GTL: Wszechstronne ćwiczenia głosowe
!!!OTL: Kwarty proste
!!!PDT:
!!!AGN: Secular
!!!SMS-siglum: PL-Wtm
!!!SMS-shelfmark: R 1461
!!!SMS-shelfwork: 007 G
!!!SMS-variant:
!!!SMS-altvar:
!!!NIFC-rismid: 1001120710
!!!system-decoration: s1{(s2,s3)}
**kern	**kern	**kern	**text
*part2	*part2	*part1	*part1
*staff3	*staff2	*staff1	*staff1
*	*I"Fortepian	*I"Sopran/Tenor	*
*	*I'pf	*I'S	*
*clefF4	*clefG2	*clefG2	*
*k[]	*k[]	*k[]	*
*C:	*C:	*C:	*
*M2/2	*M2/2	*M2/2	*
*met(c|)	*met(c|)	*met(c|)	*
=1	=1	=1	=1
*2\right	*2\right	*2\right	*
!	!	!LO:TX:a:Bi:t=Kwarty proste	!
2C\	2c 2G 2E/	2c^>/	do
2AA\	2f 2c 2F/	2f^>/	fa
=2	=2	=2	=2
2BB\	2d 2G/	2d/	re
2GG/	2g 2d 2B/	2g/	sol
=3	=3	=3	=3
2AA/	2e 2c/	2e/	mi
2FF/	2a 2f 2c/	2a/	la
=4	=4	=4	=4
2DD/	2f 2d/	2f/	fa
2GG/	2b 2g 2d/	2b\	si
=5	=5	=5	=5
2EE/	2g 2e/	2g/	sol
2AA/	2cc 2a 2e/	2cc\	do
=6	=6	=6	=6
2FF/	2a 2f/	2a/	la
2DD/	2dd 2a 2f/	2dd\	re
!!LO:LB:g=original
=7	=7	=7	=7
2GG/	2b 2g/	2b\	si
2EE/	2ee 2b 2g\	2ee\	mi
=8	=8	=8	=8
2AA/	2cc 2a\	2cc\	do
2FF/	2ff 2cc 2a\	2ff\	fa
=9	=9	=9	=9
2GG/	2dd 2b 2g/	2dd\	re
2BB/	2gg 2dd 2g\	2gg\	sol
=10	=10	=10	=10
2C/	2ee 2cc 2g\	2ee\	mi
2F\	2aa 2cc 2a\	2aa\	la
=11||	=11||	=11||	=11||
2F\	2aa 2cc 2a\	2aa^>\	la
2C/	2ee 2cc 2g\	2ee^>\	mi
=12	=12	=12	=12
2BB/	2gg 2dd 2g\	2gg\	sol
2B\	2dd 2g/	2dd\	re
=13	=13	=13	=13
2AA/	2ff 2cc 2f/	2ff\	fa
2A\	2cc 2f/	2cc\	do
!!LO:LB:g=original
=14	=14	=14	=14
2GG/	2ee 2b 2e/	2ee\	mi
2G\	2b 2e/	2b\	si
=15	=15	=15	=15
2FF/	2dd 2a 2d/	2dd\	re
2F\	2a 2d/	2a/	la
=16	=16	=16	=16
2EE/	2cc 2g 2c/	2cc\	do
2E\	2g 2c/	2g/	sol
=17	=17	=17	=17
2DD/	2b 2f 2B/	2b\	si
2D\	2f 2B/	2f/	fa
=18	=18	=18	=18
2CC/	2a 2e 2A/	2a/	la
2C\	2e 2A/	2e/	mi
=19	=19	=19	=19
2BB 2BBB\	2g 2d 2G/	2g/	sol
2BB-X 2BBB-X\	2d 2G/	2d/	re
=20	=20	=20	=20
2AA 2AAA\	2f 2c 2F/	2f/	fa
2AA-X 2AAA-X\	2c 2F/	2c/	do
=21	=21	=21	=21
2GG 2GGG\	2e 2c 2G/	2e/	mi
2E 2EE\	2c 2G/	2c/	do
=22	=22	=22	=22
*	*^	*	*
2F 2FF\	2c 2A/	1d	1d	re-
2G 2GG\	2B 2G/	.	.	.
*	*v	*v	*	*
=23	=23	=23	=23
1G 1E 1C	1c	1c	-do
==	==	==	==
*-	*-	*-	*-
!!title: @{OTL};
!!!RDF**kern: > = above
!!!RDF**kern: < = below
!!!RDF**kern: | = vertical stroke
!!!RDF**kern: N = linked
!!!RDF**kern: i = editorial accidental
!!!EED: Wojciech Jakubiak-Danek
!!!EST: 2021-06-03
!!!URL-scan: http://repozytorium.nifc.pl/skany/pl-wtm-nut--r1461
!!!ONB-nifc: UWAGA: skan 0006, s. 9
!!!ENC: Tomasz Grochalski
!!!END: 2021-05-16
